X: 190
T:Father John MacMillan of Barra
G:march
M:2/4
L:1/16
Q:1/4=80
K:AMix
% lydian/major/mixolydian pentatonic, A-final DG-gap
   A>B|c2B<A  A2c<e |f2e<c e3f|e2c<A  A2f>e |c2B<A  B2A>B  |
       c2B<A  A2c<e |f2e<c e3f|e2c<A  B2c>B |A4     A2    :|
   c<e|f2e<e  e2f<a |f2e<c e3f|e2c<A  A2f>e |c2B<A  B2[1c<e|
       f2e<e  e2f<a |f2e<c e3f|e2c<A  B2c>B |A4     A2    :|
[2 A>B|c2B<A  c<ec<A|f2e<c e3f|e2c<A  B2c>B |A4     A2    ||
   A>B|c<Ac<e c2A>c |f2e<c e3f|a>fe<f c2f>e |c2B<A  B2A>B  |
       c<Ac<e c2A>c |f2e<c e3f|e2c<A  B2c>B |A4     A2    :|
% major/mixolydian hexatonic, A-final G-gap
   c<e|f2e>f  a>fe<f|f2A>c e3f|f2e>f  a>fe<f|c2B<A  B2c<e  |
       f2e>f  a>fe<f|f2e<c e3f|e2c<A  B2c>B |A4     A2c<e  |
       f2e>f  a>fe<f|f2A>c e3f|f2e>f  e>fa>e|c>de>c B2A>B  |
       c2B<A  c<ec<A|f2e<c e3f|e2c<A  B2c>B |A4     A2    |]

Other A-final tunes have the D and G in such inconspicuous places that nobody
but a piping contest judge would notice if you left them out and covered
their absence by holding the previous note, putting them entirely into the
same pentatonic mode.  In this tune they only occur as the second note of a
two-note upbeat:

